X: 3059
T: HIGHLAND DONALD KISSED KITTY
Q:"Strathspey."
R: Strathspey.
%R:strathspey
B: James Kerr "Merry Melodies" v.3 p.9 #59
Z: 2016 John Chambers <jc:trillian.mit.edu>
M: C
L: 1/8
K: G
|:\
v(B<G) uG>uA vB>vA (B<g) | (B<G) G>B A>Bc>A |\
(B<G) G>A B>A (B<d) | e<g d<g B<g A2 :|
|:\
(B<d) d>e g>de>c | (B<d) d>e g>BA>c |\
(B<d) d>e g>de>d | e<g d<g B<g A2 :|

%%sep 1 1 500
%%sep 1 1 500

